modules/themify-icons/icons/layout-media-right.svg

<?xml version="1.0" encoding="utf-8"?>
<!-- Generated by IcoMoon.io -->
<!DOCTYPE svg PUBLIC "-//W3C//DTD SVG 1.1//EN" "http://www.w3.org/Graphics/SVG/1.1/DTD/svg11.dtd">
<svg version="1.1" xmlns="http://www.w3.org/2000/svg" xmlns:xlink="http://www.w3.org/1999/xlink" width="17" height="17" viewBox="0 0 17 17">
<g>
</g>
	<path d="M8 4v9h9v-9h-9zM16 12h-7v-7h7v7zM1.174 4h5.826v1h-5.826v-1zM3.503 7.996h3.497v1h-3.497v-1zM6.991 6.998h-6.991v-1h6.991v1zM0.009 9.993h6.991v1h-6.991v-1zM1.174 12h5.826v1h-5.826v-1z" fill="#000000" />
</svg>

<svg xmlns="http://www.w3.org/2000/svg" width="17" height="17" viewBox="0 0 17 17"><path d="M8 4v9h9V4H8zm8 8H9V5h7v7zM1.174 4H7v1H1.174V4zm2.329 3.996H7v1H3.503v-1zm3.488-.998H0v-1h6.991v1zM.009 9.993H7v1H.009v-1zM1.174 12H7v1H1.174v-1z"/></svg>
